X: 30039
T: Off To California
R: hornpipe
M: 4/4
K: Gmajor
K: Gmaj
(3DEF|:"G"GFGB AGED|GBdg "C"e2 (3def|"G"gfgd edBG|"Am"ABAG "D"E2 (3DEF|
"G"GFGB AGED|GBdg "C"e2 (3def|"G"gfgd edBG|1 "D"(3ABA GF "G"G2 (3DEF:|2 "D"(3ABA GF "G"G2 (3def||
|:"G"gfeg "D"fedf|"C"edef edBd|"C"gfgd "Em"edBG|"D"ABAG E2 (3DEF|
"G"GFGB AGED|"G"GBdg "C"e2 (3def|"G"gfgd edBG|1 "D"(3ABA GF "G"G2 (3def:|2 "D"(3ABA GF "G"G4||

